X: 157
T: No_8_Song_Concerning_the_Talking_Tree.krn
N: Derived from No_8_Song_Concerning_the_Talking_Tree.krn
%%abc-version 2.0
%%abcx-abcm2ps-target-version 5.9.1 (29 Sep 2008)
%%abc-creator hum2abc beta
%%abcx-conversion-date 2019/03/15 08:37:56
%%humdrum-veritas 3349037417
%%humdrum-veritas-data 2431669104
%%linebreak <none>
%%barnumbers 0
L: 1/8
M: 3/4
K: C clef=bass
[K:clef=bass][M:3/4]C4CC | 
C2A,G,- G, z ||  
[M:2/4]C3G, ||  
[M:3/4]G,2F,D,D,2 | 
G,2F,2D,2 ||  
[M:2/4]F,3D, | 
F,2z2 ||  
[M:3/4]C4CC | 
C2A,G,- G, z ||  
[M:2/4]C3G, ||  
[M:3/4]G,2F,D,D,2 | 
G,2F,2D,2 ||  
[M:2/4]F,4- | 
F,2z A, | 
A,3G, [I:setbarnb 16]| 
A,3G, | 
A,2G,2 | 
F,D, D, z | 
G,3F, | 
G,2F,2 | 
D,C, C, z | 
z2(3D,C,C, | 
C,4 | 
z2(3C,C,C, ||  
[M:3/4]C,4F,D, | 
G,2F,2D,2 ||  
[M:2/4]F,3D, | 
F,2z2 | 
z2C,2 :|]  



